src/rounded/icons/fi-rr-test-tube.svg

<svg id="Layer_1" height="512" viewBox="0 0 24 24" width="512" xmlns="http://www.w3.org/2000/svg" data-name="Layer 1"><path d="m18 0h-12a1 1 0 0 0 0 2h1v17a5 5 0 0 0 10 0v-17h1a1 1 0 0 0 0-2zm-6 22a3 3 0 0 1 -3-3v-10h6v10a3 3 0 0 1 -3 3zm3-15h-6v-5h6z"/></svg>

<svg id="Layer_1" data-name="Layer 1" xmlns="http://www.w3.org/2000/svg" viewBox="0 0 24 24"><path d="M18,0H6A1,1,0,0,0,6,2H7V19a5,5,0,0,0,10,0V2h1a1,1,0,0,0,0-2ZM12,22a3,3,0,0,1-3-3V9h6V19A3,3,0,0,1,12,22ZM15,7H9V2h6Z"/></svg>
